fs/video_person_sparkle_16_regular.svg

<svg viewBox="0 0 16 16" fill="none" xmlns="http://www.w3.org/2000/svg" height="1em" width="1em">
  <path d="M3.22174 3H13.2476C13.4775 2.99948 13.7053 3.04436 13.9179 3.13207C14.1305 3.21978 14.3237 3.3486 14.4865 3.51115C14.6493 3.67371 14.7784 3.8668 14.8665 4.07938C14.9546 4.29196 15 4.51985 15 4.75V11.25C15.0001 11.4799 14.955 11.7075 14.8672 11.9199C14.7794 12.1322 14.6506 12.3252 14.4882 12.4877C14.3258 12.6503 14.133 12.7792 13.9208 12.8671C13.7086 12.955 13.4812 13.0001 13.2516 13H2.76116C2.29745 13 1.85274 12.8156 1.52485 12.4874C1.19696 12.1593 1.01275 11.7141 1.01275 11.25V7.489C1.09052 7.59817 1.1857 7.69378 1.29449 7.772C1.50411 7.92081 1.75486 8.0005 2.01184 8V11.248C2.01184 11.4469 2.09078 11.6377 2.23131 11.7783C2.37183 11.919 2.56242 11.998 2.76116 11.998H5.00911V10.998C5.00911 10.7328 5.11437 10.4784 5.30173 10.2909C5.4891 10.1034 5.74322 9.998 6.0082 9.998H10.0046C10.2695 9.998 10.5237 10.1034 10.711 10.2909C10.8984 10.4784 11.0036 10.7328 11.0036 10.998V11.998H13.2516C13.4503 11.998 13.6409 11.919 13.7814 11.7783C13.922 11.6377 14.0009 11.4469 14.0009 11.248V4.748C14.0009 4.54909 13.922 4.35833 13.7814 4.21767C13.6409 4.07702 13.4503 3.998 13.2516 3.998H4.49757C4.40077 3.92656 4.29408 3.86963 4.18086 3.829L4.1369 3.813L4.11292 3.807L3.53345 3.619C3.49613 3.60615 3.46204 3.58533 3.43354 3.558C3.40562 3.52959 3.38415 3.49548 3.3706 3.458L3.22174 3ZM6.0042 12H10.0006V11H6.0042V12ZM1.27783 5.73201C1.19766 5.65353 1.10726 5.58626 1.00908 5.53201L0.999089 5.54401C0.927835 5.50068 0.852138 5.46515 0.773297 5.43801L0.161855 5.23801C0.114581 5.22125 0.0737144 5.19014 0.044961 5.14901C0.0157854 5.10854 5.5755e-05 5.05992 0 5.01001C0.000180473 4.95982 0.0158882 4.91091 0.044961 4.87001C0.0737693 4.82916 0.114653 4.79838 0.161855 4.78201L0.773297 4.58201C0.863158 4.55062 0.949271 4.50937 1.03006 4.45901C1.11352 4.40678 1.19063 4.34504 1.25985 4.27501C1.39428 4.14094 1.49673 3.97823 1.55958 3.79901L1.56458 3.78301L1.76439 3.17201C1.78075 3.12476 1.8115 3.08384 1.85231 3.05501C1.89317 3.02591 1.94204 3.01019 1.99218 3.01001C2.04233 3.01019 2.09119 3.02591 2.13206 3.05501C2.17287 3.08384 2.20362 3.12476 2.21998 3.17201L2.4198 3.78301C2.45167 3.87724 2.49424 3.9675 2.54668 4.05201C2.59739 4.13341 2.65704 4.20888 2.72452 4.27701C2.86363 4.41388 3.03258 4.51657 3.21807 4.57701L3.83051 4.77701H3.8425C3.88954 4.79368 3.93035 4.82439 3.95939 4.86501C3.98817 4.906 4.00353 4.95491 4.00335 5.00501C4.00353 5.05511 3.98817 5.10402 3.95939 5.14501C3.93007 5.18536 3.88936 5.21601 3.8425 5.23301L3.23106 5.43301C3.0453 5.49351 2.87604 5.59618 2.73651 5.73301C2.60011 5.87252 2.49756 6.04154 2.43678 6.22701L2.23696 6.83901L2.23097 6.85401C2.21971 6.88007 2.20417 6.90407 2.18501 6.92501C2.17396 6.93639 2.16193 6.94677 2.14904 6.95601C2.10809 6.98481 2.05922 7.00019 2.00917 7.00001C1.95912 7.00019 1.91025 6.98481 1.8693 6.95601C1.8275 6.92725 1.79544 6.88645 1.77738 6.83901L1.57756 6.22701C1.53256 6.09101 1.46501 5.96357 1.37775 5.85001C1.34683 5.80871 1.31346 5.76931 1.27783 5.73201ZM10.0006 7C10.0006 6.46957 9.79013 5.96086 9.4154 5.58579C9.04066 5.21071 8.53242 5 8.00247 5C7.47252 5 6.96428 5.21071 6.58954 5.58579C6.21481 5.96086 6.00429 6.46957 6.00429 7C6.00429 7.53043 6.21481 8.03914 6.58954 8.41421C6.96428 8.78929 7.47252 9 8.00247 9C8.53242 9 9.04066 8.78929 9.4154 8.41421C9.79013 8.03914 10.0006 7.53043 10.0006 7ZM7.00338 7C7.00338 6.73478 7.10864 6.48043 7.29601 6.29289C7.48337 6.10536 7.7375 6 8.00247 6C8.26745 6 8.52157 6.10536 8.70893 6.29289C8.8963 6.48043 9.00156 6.73478 9.00156 7C9.00156 7.26522 8.8963 7.51957 8.70893 7.70711C8.52157 7.89464 8.26745 8 8.00247 8C7.7375 8 7.48337 7.89464 7.29601 7.70711C7.10864 7.51957 7.00338 7.26522 7.00338 7ZM3.88625 7.081C3.89454 7.0573 3.90988 7.03671 3.93021 7.022C3.93804 7.01704 3.94642 7.01301 3.95518 7.01C3.96843 7.00409 3.98266 7.0007 3.99715 7C4.02214 7.0001 4.04652 7.00777 4.06708 7.022L4.09006 7.04C4.10084 7.05183 4.10901 7.0658 4.11404 7.081L4.21395 7.387C4.24502 7.47988 4.29697 7.56438 4.36581 7.634C4.43536 7.7029 4.51979 7.7549 4.61259 7.786L4.91831 7.886H4.9253L4.94628 7.896C4.96064 7.9049 4.97318 7.91643 4.98325 7.93C4.99735 7.95063 5.005 7.975 5.00523 8C5.005 8.025 4.99735 8.04937 4.98325 8.07C4.9689 8.09027 4.94867 8.10563 4.9253 8.114L4.61858 8.214C4.52572 8.24545 4.4413 8.29779 4.3718 8.367C4.30274 8.43644 4.25075 8.521 4.21994 8.614L4.12004 8.92C4.11204 8.94359 4.09662 8.96394 4.07608 8.978C4.05576 8.99271 4.03122 9.00043 4.00614 9C3.9811 9.00022 3.95662 8.99252 3.9362 8.978C3.91621 8.96338 3.90093 8.94321 3.89224 8.92L3.79234 8.614C3.76155 8.52046 3.70918 8.4355 3.63947 8.366C3.57041 8.29625 3.48585 8.24382 3.3927 8.213L3.08698 8.113C3.06311 8.10506 3.04244 8.08963 3.02803 8.069C3.01378 8.04881 3.0061 8.02472 3.00605 8C3.00615 7.97498 3.01382 7.95058 3.02803 7.93C3.04244 7.90937 3.06311 7.89394 3.08698 7.886L3.3927 7.786C3.48447 7.75411 3.56782 7.70179 3.63648 7.633C3.67063 7.59741 3.70078 7.55817 3.72639 7.516C3.75137 7.4755 3.77149 7.43221 3.78634 7.387L3.88625 7.081Z" fill="#212121"/>
</svg>

<svg viewBox="0 0 16 16" fill="none" xmlns="http://www.w3.org/2000/svg" height="1em" width="1em">
  <path d="M3.222 3h10.026A1.747 1.747 0 0 1 15 4.75v6.5A1.751 1.751 0 0 1 13.252 13H2.762a1.748 1.748 0 0 1-1.75-1.75V7.489a1.221 1.221 0 0 0 1 .511v3.248a.75.75 0 0 0 .75.75h2.247v-1a1 1 0 0 1 1-1h3.996a.999.999 0 0 1 .999 1v1h2.248a.749.749 0 0 0 .749-.75v-6.5a.75.75 0 0 0-.75-.75H4.499a1.237 1.237 0 0 0-.317-.169l-.044-.016-.024-.006-.58-.188a.273.273 0 0 1-.1-.061.277.277 0 0 1-.062-.1L3.22 3Zm2.782 9h3.997v-1H6.004v1ZM1.278 5.732a1.245 1.245 0 0 0-.269-.2L1 5.544a1.163 1.163 0 0 0-.226-.106l-.611-.2a.24.24 0 0 1-.117-.089.238.238 0 0 1 0-.279.239.239 0 0 1 .117-.088l.611-.2a1.289 1.289 0 0 0 .787-.783l.005-.016.2-.611a.243.243 0 0 1 .368-.117c.04.029.07.07.087.117l.2.611a1.3 1.3 0 0 0 .305.494c.139.137.308.24.493.3l.613.2h.011a.242.242 0 0 1 0 .456l-.61.2c-.187.06-.356.163-.495.3-.137.14-.24.309-.3.494l-.2.612-.006.015a.255.255 0 0 1-.082.102.242.242 0 0 1-.28 0 .25.25 0 0 1-.092-.117l-.2-.612a1.277 1.277 0 0 0-.3-.495ZM10 7a2 2 0 0 0-1.999-2 1.997 1.997 0 0 0-1.998 2 2 2 0 0 0 1.998 2A1.997 1.997 0 0 0 10 7ZM7.003 7a1 1 0 0 1 1.706-.707 1 1 0 0 1-1.413 1.414A1 1 0 0 1 7.003 7Zm-3.117.081a.123.123 0 0 1 .044-.059.119.119 0 0 1 .025-.012.117.117 0 0 1 .042-.01c.025 0 .05.008.07.022l.023.018a.13.13 0 0 1 .024.041l.1.306a.64.64 0 0 0 .152.247.64.64 0 0 0 .247.152l.305.1h.007l.021.01A.12.12 0 0 1 5.005 8a.121.121 0 0 1-.08.114l-.306.1a.641.641 0 0 0-.4.4l-.099.306a.115.115 0 0 1-.044.058.116.116 0 0 1-.07.022.119.119 0 0 1-.114-.08l-.1-.306a.627.627 0 0 0-.4-.401l-.305-.1a.12.12 0 0 1 0-.227l.306-.1a.642.642 0 0 0 .333-.27.606.606 0 0 0 .06-.129l.1-.306Z" fill="#212121"/>
</svg>
